flaticon/emoticons/laughing-1.svg

<svg xmlns="http://www.w3.org/2000/svg" width="32" height="32" viewBox="0 0 24 24">
    <path d="M 18 14.726562 L 6 14.726562 C 5.699219 14.726562 5.453125 14.972656 5.453125 15.273438 C 5.453125 18.882812 8.390625 21.816406 12 21.816406 C 15.609375 21.816406 18.546875 18.882812 18.546875 15.273438 C 18.546875 14.972656 18.300781 14.726562 18 14.726562 Z M 16.984375 17.46875 C 16.960938 17.464844 16.9375 17.453125 16.910156 17.453125 L 15.816406 17.453125 L 15.816406 15.816406 L 17.425781 15.816406 C 17.371094 16.402344 17.214844 16.957031 16.984375 17.46875 Z M 13.636719 17.453125 L 13.636719 15.816406 L 14.726562 15.816406 L 14.726562 17.453125 Z M 14.726562 18.546875 L 14.726562 19.988281 C 14.382812 20.1875 14.019531 20.351562 13.636719 20.472656 L 13.636719 18.546875 Z M 9.273438 17.453125 L 9.273438 15.816406 L 10.363281 15.816406 L 10.363281 17.453125 Z M 10.363281 18.546875 L 10.363281 20.472656 C 9.980469 20.351562 9.617188 20.1875 9.273438 19.988281 L 9.273438 18.546875 Z M 11.453125 15.816406 L 12.546875 15.816406 L 12.546875 17.453125 L 11.453125 17.453125 Z M 8.183594 15.816406 L 8.183594 17.453125 L 7.089844 17.453125 C 7.0625 17.453125 7.039062 17.464844 7.015625 17.46875 C 6.785156 16.957031 6.632812 16.402344 6.574219 15.816406 Z M 7.640625 18.546875 L 8.183594 18.546875 L 8.183594 19.15625 C 7.988281 18.964844 7.804688 18.761719 7.640625 18.546875 Z M 11.453125 20.699219 L 11.453125 18.546875 L 12.546875 18.546875 L 12.546875 20.699219 C 12.367188 20.71875 12.183594 20.726562 12 20.726562 C 11.816406 20.726562 11.632812 20.71875 11.453125 20.699219 Z M 15.816406 19.15625 L 15.816406 18.546875 L 16.359375 18.546875 C 16.195312 18.761719 16.011719 18.964844 15.816406 19.15625 Z M 15.816406 19.15625"/>
    <path d="M 12 0 C 5.382812 0 0 5.382812 0 12 C 0 18.617188 5.382812 24 12 24 C 18.617188 24 24 18.617188 24 12 C 24 5.382812 18.617188 0 12 0 Z M 12 22.910156 C 5.984375 22.910156 1.089844 18.015625 1.089844 12 C 1.089844 5.984375 5.984375 1.089844 12 1.089844 C 18.015625 1.089844 22.910156 5.984375 22.910156 12 C 22.910156 18.015625 18.015625 22.910156 12 22.910156 Z M 12 22.910156"/>
    <path d="M17.648438 12.417969C17.753906 12.503906 17.875 12.546875 18 12.546875 18.15625 12.546875 18.3125 12.476562 18.417969 12.347656 18.613281 12.117188 18.582031 11.773438 18.351562 11.582031L15.578125 9.273438 18.347656 6.964844C18.582031 6.769531 18.613281 6.425781 18.417969 6.195312 18.226562 5.964844 17.882812 5.933594 17.648438 6.125L14.378906 8.855469C14.253906 8.957031 14.183594 9.109375 14.183594 9.273438 14.183594 9.433594 14.253906 9.589844 14.378906 9.691406zM6.125 12.347656C6.234375 12.476562 6.390625 12.546875 6.546875 12.546875 6.667969 12.546875 6.792969 12.503906 6.894531 12.417969L10.167969 9.691406C10.292969 9.589844 10.363281 9.433594 10.363281 9.273438 10.363281 9.109375 10.292969 8.957031 10.167969 8.855469L6.894531 6.125C6.664062 5.933594 6.320312 5.964844 6.125 6.195312 5.933594 6.425781 5.964844 6.773438 6.195312 6.964844L8.964844 9.273438 6.195312 11.582031C5.964844 11.773438 5.933594 12.117188 6.125 12.347656zM6.125 12.347656"/>
</svg>

<svg xmlns="http://www.w3.org/2000/svg" width="32" height="32" viewBox="0 0 24 24">
    <path d="M18 14.727H6c-.3 0-.547.246-.547.546 0 3.61 2.938 6.543 6.547 6.543 3.61 0 6.547-2.933 6.547-6.543 0-.3-.246-.546-.547-.546zm-1.016 2.742c-.023-.004-.047-.016-.074-.016h-1.094v-1.637h1.61a5.194 5.194 0 0 1-.442 1.653zm-3.347-.016v-1.637h1.09v1.637zm1.09 1.094v1.441a5.45 5.45 0 0 1-1.09.485v-1.926zm-5.454-1.094v-1.637h1.09v1.637zm1.09 1.094v1.926a5.45 5.45 0 0 1-1.09-.485v-1.441zm1.09-2.73h1.094v1.636h-1.094zm-3.27 0v1.636H7.09c-.027 0-.05.012-.074.016a5.298 5.298 0 0 1-.442-1.653zm-.542 2.73h.543v.61a5.712 5.712 0 0 1-.543-.61zm3.812 2.152v-2.152h1.094v2.152c-.18.02-.363.028-.547.028-.184 0-.367-.008-.547-.028zm4.363-1.543v-.61h.543a5.712 5.712 0 0 1-.543.61zm0 0"/>
    <path d="M12 0C5.383 0 0 5.383 0 12s5.383 12 12 12 12-5.383 12-12S18.617 0 12 0zm0 22.91C5.984 22.91 1.09 18.016 1.09 12S5.984 1.09 12 1.09 22.91 5.984 22.91 12 18.016 22.91 12 22.91zm0 0"/>
    <path d="M17.648 12.418a.543.543 0 0 0 .77-.07.54.54 0 0 0-.066-.766l-2.774-2.309 2.77-2.308a.543.543 0 0 0 .07-.77.549.549 0 0 0-.77-.07l-3.27 2.73a.534.534 0 0 0-.194.418c0 .16.07.317.195.418zm0 0M6.125 12.348a.54.54 0 0 0 .77.07l3.273-2.727a.54.54 0 0 0 .195-.418.534.534 0 0 0-.195-.418l-3.273-2.73a.55.55 0 0 0-.77.07.55.55 0 0 0 .07.77l2.77 2.308-2.77 2.309a.545.545 0 0 0-.07.766zm0 0"/>
</svg>
